Hatter-kde/actions/22/office-chart-area-focus-peak-node.svg

<svg xmlns="http://www.w3.org/2000/svg" viewBox="0 0 22 22">
  <defs id="defs3051">
    <style type="text/css" id="current-color-scheme">
      .ColorScheme-Text {
        color:#363636;
      }
      </style>
  </defs>
 <path 
     style="fill:currentColor;fill-opacity:1;stroke:none" 
     d="M 4 3 L 4 15 L 4 16 L 4 17 L 3 17 L 3 18 L 4 18 L 4 19 L 5 19 L 5 18 L 19 18 L 19 17 L 5 17 L 5 16 L 5.0078125 16 L 6 16 L 8 16 L 8 15.992188 L 8.0078125 16 L 10.007812 14 L 11.599609 14 L 13.599609 16 L 17.099609 16 L 19 16 L 19 15 L 17.099609 15 L 14.013672 15 L 12.013672 13 L 12 13 L 11.007812 13 L 10.599609 13 L 9.59375 13 L 7.59375 15 L 6 15 L 5.0078125 15 L 5 15 L 5 11 L 10 11 L 10 10.992188 L 10.007812 11 L 11.003906 10.003906 L 11 10 L 10.296875 9.296875 L 9.59375 10 L 5 10 L 5 3 L 4 3 z M 11 10 L 13 10 L 13 9 L 12 9 L 12 8 L 11 8 L 11 10 z M 11 4 L 11 6 L 12 6 L 12 5 L 13 5 L 13 4 L 11 4 z M 15 4 L 15 5 L 16 5 L 16 6 L 17 6 L 17 4 L 15 4 z M 14 5.59375 L 13.292969 6.3007812 L 12.296875 7.296875 L 13.003906 8.0039062 L 14 7.0078125 L 14.996094 8.0039062 L 15.703125 7.296875 L 14 5.59375 z M 16 8 L 16 9 L 15 9 L 15 10 L 17 10 L 17 8 L 16 8 z M 19 8 L 18 9 L 19 9 L 19 8 z "
     class="ColorScheme-Text"
     />
 <path 
     style="fill:currentColor;fill-opacity:0.5;stroke:none" 
     d="M 14 7 L 12.003906 9 L 13 9 L 13 10 L 11.005859 10 L 10.007812 11 L 5 11 L 5 15 L 7.5996094 15 L 9.5996094 13 L 12.007812 13 L 14 14.992188 L 19 15 L 19 9 L 17 9 L 17 10 L 15 10 L 15 9 L 16 9 L 14 7 z M 10 14 L 8 16 L 5 16 L 5 17 L 19 17 L 19 16 L 13.599609 16 L 11.599609 14 L 10 14 z "
     class="ColorScheme-Text"
     />
</svg>

<?xml version="1.0" encoding="UTF-8"?>
<svg viewBox="0 0 22 22" xmlns="http://www.w3.org/2000/svg">
 <defs id="defs3051">
  <style id="current-color-scheme" type="text/css">.ColorScheme-Text {
        color:#363636;
      }</style>
 </defs>
 <path class="ColorScheme-Text" d="m4 3v12 1 1h-1v1h1v1h1v-1h14v-1h-14v-1h0.0078125 0.99219 2v-0.007812l0.0078125 0.007812 2-2h1.5918l2 2h3.5 1.9004v-1h-1.9004-3.0859l-2-2h-0.013672-0.99219-0.4082-1.0059l-2 2h-1.5938-0.99219-0.0078125v-4h5v-0.007812l0.007812 0.007812 0.99609-0.99609-0.70703-0.70703-0.70312 0.70312h-4.5938v-7h-1zm7 7h2v-1h-1v-1h-1v2zm0-6v2h1v-1h1v-1h-2zm4 0v1h1v1h1v-2h-2zm-1 1.5938-1.7031 1.7031 0.70703 0.70703 0.99609-0.99609 0.99609 0.99609 0.70703-0.70703-1.7031-1.7031zm2 2.4062v1h-1v1h2v-2h-1zm3 0-1 1h1v-1z" fill="currentColor"/>
 <path class="ColorScheme-Text" d="m14 7-1.9961 2h0.99609v1h-1.9941l-0.99805 1h-5.0078v4h2.5996l2-2h2.4082l1.9922 1.9922 5 0.007812v-6h-2v1h-2v-1h1l-2-2zm-4 7-2 2h-3v1h14v-1h-5.4004l-2-2h-1.5996z" fill="currentColor" fill-opacity=".5"/>
</svg>
